X:1
T:How Beautiful Heaven Must Be
T:How Beautiful Heaven Must Be
T:Andy Pickens Bland
T:Cordelia J. Whiteside Bridgewater, 1920
T:Public Domain Courtesy of the Cyber Hymnal™
C:Andy Pickens Bland
Z:Public Domain
Z:Courtesy of the Cyber Hymnal™
%%score ( 1 2 ) ( 3 4 )
L:1/8
Q:1/4=90
M:6/8
K:G
V:1 treble 
V:2 treble 
V:3 bass 
V:4 bass 
V:1
 [Gd] | [GB]>[GB][GB] [GB][FA]G | [GB]3 [DG]2 [GB] | [Gd]>[Gd][Gd] [GB][DG][GB] | %4
w: 1.~We|read of a place that’s called|Hea- ven, It’s|made for the pure and the|
w: 2.~In|Hea- ven, no droop- ing nor|pin- ing, No|wish- ing for else- where to|
w: 3.~Pure|wa- ters of life there are|flow- ing, And|all who will drink may be|
w: 4.~The|an- gels so sweet- ly are|sing- ing, Up|there by the beau- ti- ful|
 [FA]3- [FA]2 [GB] | [Gd]>[Gd][Gd] [DB][DB][B,G] | ([DB]2 [^DA]) !fermata![EG]2 [=DB] | %7
w: free; * These|truths in God’s word He has|giv- * en, How|
w: be; * God’s|light is for- ev- er there|shin- * ing, How|
w: free; * Rare|jew- els of splen- dor are|glow- * ing, How|
w: sea; * The|song of re- demp- tion is|ring- * ing, How|
 [Gd]>[GB]G [GB][DG][DA] | [DG]3- [DG]2 ||"^Refrain" [B,D] | [DG]>[DG][DG] [GB][DG][DA] | %11
w: beau- ti- ful Hea- ven must|be. *|||
w: beau- ti- ful Hea- ven must|be. *|How|beau- ti- ful Hea- ven must|
w: beau- ti- ful Hea- ven must|be. *|||
w: beau- ti- ful Hea- ven must|be. *|||
 G3- [DG]2 [GB] | [Gd]>[Gd][Gd] [GB][DG][GB] | [FA]3- [FA]2 [GB] | [Gd]>[Gd][Gd] [DB][DB][B,G] | %15
w: ||||
w: be, Sweet home|* of the hap- py and|free; * Fair|ha- ven of rest for the|
w: ||||
w: ||||
 ([DB]2 [^DA]) !fermata![EG]2 [=DB] | [Gd]>[GB]G [GB][DG][DA] | [DG]3- [DG]2 |] %18
w: |||
w: wea- * ry, How|beau- ti- ful Hea- ven must|be. *|
w: |||
w: |||
V:2
 x | x5 G | x6 | x6 | x6 | x6 | x6 | x2 G x3 | x5 || x | x6 | D2 E x3 | x6 | x6 | x6 | x6 | %16
 x2 G x3 | x5 |] %18
V:3
 [G,B,] | [G,D]>[G,D][G,D] [G,D][G,C][G,B,] | [G,D]3 [G,B,]2 [G,D] | %3
w: |||
 [G,B,]>[G,B,][G,B,] [G,D][G,B,][G,D] | [D,D]3- [D,D]2 [G,D] | [G,B,]>[G,B,][G,B,] G,G,G, | %6
w: ||* * * must be, *|
 G,2 [F,A,] !fermata![E,B,]2 G, | [G,B,]>[G,D][G,B,] [D,D][D,B,][D,C] | [G,B,]3- [G,B,]2 || G, | %10
w: ||||
 [G,B,]>[G,B,][G,B,] [G,D][G,B,][F,C] | B,2 C [G,B,]2 [G,D] | %12
w: ||
 [G,B,]>[G,B,][G,B,] [G,D][G,B,][G,D] | [D,D]3- [D,D]2 [G,D] | [G,B,]>[G,B,][G,B,] G,G,G, | %15
w: |||
 G,2 [F,A,] !fermata![E,B,]2 G, | [G,B,]>[G,D][G,B,] [D,D][D,B,][D,C] | [G,,G,B,]3- [G,,G,B,]2 |] %18
w: |||
V:4
 x | x6 | x6 | x6 | x6 | x3 G,G,G, | (G,2 x G,) x2 | x6 | x5 || G, | x6 | G,3- x3 | x6 | x6 | %14
 x3 G,G,G, | G,2 x G, x2 | x6 | x5 |] %18

